X:11
T:Jigs 1 - Seven Stars
T:The Ball
Z: Contributed 2017-03-28 17:51:40 by Owen ukebert@googlemail.com
K:G
M:6/8
d | "G"B2G "Am"AGF | "G/B"GBG D2D | "C"E2G c2A | "Em"G3 "D"F2d |
"G"B2G "Am"AGF | "G/B"GBG D2D | "C"E2c A2F | "D"F3 "G"G2 :|
B | "D"A2D cBA | Bcd GAB | A2D cBA | "C"c3 "G/B"B2d |
"C"e2c "D"A2f | "G"g2d "G/B"BAG | "C"E2c "Am"A2F | "D"F3 "G"G2 :|
T:Seven Stars
K:D
"D"d2A A2F | "G"GAB "D/F#"A3 | "G"Bcd "E"efg | "A"fed cBA |
"D"d2A A2F | "G"GAB "D/F#"A3 | "G"Bcd "Em"efg |1 "A"Adc "D"d3:|2 "A"Adc "D"d2 ||
f | "A"e2A A2f | efg f3 | efg fed | cec A3 |
"G"BGB "D"AFA | "G"BGB "D"AFA | "G"Bcd "Em"efg | "A7"Adc "D"d2 :|
%%newpage

